src/assets/icons/placemarkActive.svg

<svg width="26" height="34" viewBox="0 0 26 34" fill="none" xmlns="http://www.w3.org/2000/svg">
<g id="Group">
<path id="Vector" d="M13 0C5.86 0 0.0507812 5.80922 0.0507812 12.9492C0.0507812 23.2584 11.8599 33.3502 12.3619 33.7694C12.5017 33.8854 12.7749 34 13 34C13.2252 34 13.4983 33.8854 13.6381 33.7694C14.1401 33.3502 25.9492 23.2584 25.9492 12.9492C25.9492 5.80922 20.14 0 13 0Z" fill="url(#paint0_linear_633_6939)"/>
<path id="Vector_2" d="M13.9961 9.96094H12.0039V11.9531H13.9961C14.5447 11.9531 14.9922 11.5066 14.9922 10.957C14.9922 10.4075 14.5447 9.96094 13.9961 9.96094ZM13 3.98438C8.05652 3.98438 4.03516 8.00574 4.03516 12.9492C4.03516 17.8927 8.05652 21.9141 13 21.9141C17.9435 21.9141 21.9648 17.8927 21.9648 12.9492C21.9648 8.00574 17.9435 3.98438 13 3.98438ZM13.9961 13.9453H12.0039V16.9336C12.0039 17.4842 11.5584 17.9297 11.0078 17.9297C10.4572 17.9297 10.0117 17.4842 10.0117 16.9336V8.96484C10.0117 8.41427 10.4572 7.96875 11.0078 7.96875H13.9961C15.6439 7.96875 16.9844 9.30923 16.9844 10.957C16.9844 12.6048 15.6439 13.9453 13.9961 13.9453Z" fill="white"/>
</g>
<defs>
<linearGradient id="paint0_linear_633_6939" x1="13" y1="34" x2="13" y2="0" gradientUnits="userSpaceOnUse">
<stop stop-color="#FF2121"/>
<stop offset="1" stop-color="#FF5252"/>
</linearGradient>
</defs>
</svg>

<svg xmlns="http://www.w3.org/2000/svg" width="26" height="34" fill="none"><path fill="url(#a)" d="M13 0C5.86 0 .05 5.81.05 12.95c0 10.308 11.81 20.4 12.312 20.82.14.115.413.23.638.23.225 0 .498-.115.638-.23.502-.42 12.311-10.512 12.311-20.82C25.95 5.81 20.14 0 13 0Z"/><path fill="#fff" d="M13.996 9.96h-1.992v1.993h1.992a.997.997 0 0 0 .996-.996.997.997 0 0 0-.996-.996ZM13 3.985c-4.943 0-8.965 4.022-8.965 8.965 0 4.944 4.022 8.965 8.965 8.965 4.944 0 8.965-4.021 8.965-8.965 0-4.943-4.021-8.965-8.965-8.965Zm.996 9.961h-1.992v2.989a.995.995 0 1 1-1.992 0v-7.97c0-.55.445-.995.996-.995h2.988a2.992 2.992 0 0 1 2.988 2.988 2.992 2.992 0 0 1-2.988 2.988Z"/><defs><linearGradient id="a" x1="13" x2="13" y1="34" y2="0" gradientUnits="userSpaceOnUse"><stop stop-color="#FF2121"/><stop offset="1" stop-color="#FF5252"/></linearGradient></defs></svg>
